X:1
T:John Dwyer of the Glen
M:4/4
R:Hornpipe
N: From videoclip of Angela Carberry &amp; Aiden()Quin
K:D
|:ed |cAAG ~A2 (3ABc |dcAF ~G2 (3Bcd| edce dcAG| ~A2 AG ~A2 de|fdfg ~e2 fe|
~d2 cdef ge|agec dedc |~A2 AG ~A2:|:ef|~g2 gagf ed|eg ~g2 gfed|eaag ~a2 ag|
eaag ~a2 ag|~f2 fd ~e2 ec|~d2 dc defg|aged cAGE|1~A2 AG ~A2:|2~A2 AG ~A3||
